frontend/public/assets/material-icons/folder-svg-open.svg

<svg xmlns="http://www.w3.org/2000/svg" viewBox="0 0 32 32">
  <path d="M28.96692,12H9.44152a2,2,0,0,0-1.89737,1.36754L4,24V10H28a2,2,0,0,0-2-2H15.1241a2,2,0,0,1-1.28038-.46357L12.5563,6.46357A2,2,0,0,0,11.27592,6H4A2,2,0,0,0,2,8V24a2,2,0,0,0,2,2H26l4.80523-11.21213A2,2,0,0,0,28.96692,12Z" style="fill: #ffb300"/>
  <path d="M29,17a1.99146,1.99146,0,0,0-1.7226,1H23.41418l3.07428-3.07428a2.03451,2.03451,0,1,0-1.41418-1.41418L22,16.58582V12.7226a2,2,0,1,0-2,0v3.86315l-3.07428-3.07428a2.03448,2.03448,0,1,0-1.41418,1.41425L18.58582,18H14.7226a2,2,0,1,0,0,2h3.86315l-3.07428,3.07428a2.0346,2.0346,0,1,0,1.41425,1.41425L20,21.41425V25.2774a2,2,0,1,0,2,0V21.41418l3.07428,3.07428a2.03463,2.03463,0,1,0,1.41425-1.41418L23.41425,20H27.2774A1.99655,1.99655,0,1,0,29,17Z" style="fill: #fff9c4;fill-rule: evenodd"/>
</svg>

<svg xmlns="http://www.w3.org/2000/svg" viewBox="0 0 32 32"><path fill="#ffb300" d="M28.967 12H9.442a2 2 0 0 0-1.898 1.368L4 24V10h24a2 2 0 0 0-2-2H15.124a2 2 0 0 1-1.28-.464l-1.288-1.072A2 2 0 0 0 11.276 6H4a2 2 0 0 0-2 2v16a2 2 0 0 0 2 2h22l4.805-11.212A2 2 0 0 0 28.967 12"/><path fill="#fff9c4" d="M29 17a1.99 1.99 0 0 0-1.723 1h-3.863l3.074-3.074a2.035 2.035 0 1 0-1.414-1.414L22 16.586v-3.863a2 2 0 1 0-2 0v3.863l-3.074-3.075a2.034 2.034 0 1 0-1.414 1.415L18.586 18h-3.863a2 2 0 1 0 0 2h3.863l-3.075 3.074a2.035 2.035 0 1 0 1.415 1.415L20 21.414v3.863a2 2 0 1 0 2 0v-3.863l3.074 3.074a2.035 2.035 0 1 0 1.415-1.414L23.414 20h3.863A1.997 1.997 0 1 0 29 17"/></svg>
